assets/icons/qvision/border_clear.svg

<svg xmlns="http://www.w3.org/2000/svg" height="24" viewBox="0 0 24 24" width="24"><path d="M0 0h24v24H0z" fill="none"/><path d="M7 5h2V3H7v2zm0 8h2v-2H7v2zm0 8h2v-2H7v2zm4-4h2v-2h-2v2zm0 4h2v-2h-2v2zm-8 0h2v-2H3v2zm0-4h2v-2H3v2zm0-4h2v-2H3v2zm0-4h2V7H3v2zm0-4h2V3H3v2zm8 8h2v-2h-2v2zm8 4h2v-2h-2v2zm0-4h2v-2h-2v2zm0 8h2v-2h-2v2zm0-12h2V7h-2v2zm-8 0h2V7h-2v2zm8-6v2h2V3h-2zm-8 2h2V3h-2v2zm4 16h2v-2h-2v2zm0-8h2v-2h-2v2zm0-8h2V3h-2v2z"/></svg>

<svg width="24" height="24" viewBox="0 0 24 24" fill="none" xmlns="http://www.w3.org/2000/svg">
<g clip-path="url(#clip0_147_2532)">
<path d="M7 5H9V3H7V5ZM7 13H9V11H7V13ZM7 21H9V19H7V21ZM11 17H13V15H11V17ZM11 21H13V19H11V21ZM3 21H5V19H3V21ZM3 17H5V15H3V17ZM3 13H5V11H3V13ZM3 9H5V7H3V9ZM3 5H5V3H3V5ZM11 13H13V11H11V13ZM19 17H21V15H19V17ZM19 13H21V11H19V13ZM19 21H21V19H19V21ZM19 9H21V7H19V9ZM11 9H13V7H11V9ZM19 3V5H21V3H19ZM11 5H13V3H11V5ZM15 21H17V19H15V21ZM15 13H17V11H15V13ZM15 5H17V3H15V5Z" fill="#323232"/>
</g>
<defs>
<clipPath id="clip0_147_2532">
<rect width="24" height="24" fill="white"/>
</clipPath>
</defs>
</svg>
